www/assets/icons/medication_liquid.svg

<svg xmlns="http://www.w3.org/2000/svg" width="24" height="24" viewBox="0 0 24 24" fill='currentColor'><path d="M14.5 3h-12v2h12zm-1 3h-10c-1.1 0-2 .9-2 2v11c0 1.1.9 2 2 2h10c1.1 0 2-.9 2-2V8c0-1.1-.9-2-2-2m-1 9H10v2.5H7V15H4.5v-3H7V9.5h3V12h2.5zm7-9c-1.68 0-3 1.76-3 4 0 1.77.83 3.22 2 3.76V20c0 .55.45 1 1 1s1-.45 1-1v-6.24c1.17-.54 2-1.99 2-3.76 0-2.24-1.32-4-3-4"/></svg>

<svg width="24" height="24" viewBox="0 0 24 24" xmlns="http://www.w3.org/2000/svg" fill='currentColor'><path d="M14.5 3H2.5V5H14.5V3Z"/><path d="M13.5 6H3.5C2.4 6 1.5 6.9 1.5 8V19C1.5 20.1 2.4 21 3.5 21H13.5C14.6 21 15.5 20.1 15.5 19V8C15.5 6.9 14.6 6 13.5 6ZM12.5 15H10V17.5H7V15H4.5V12H7V9.5H10V12H12.5V15Z"/><path d="M19.5 6C17.82 6 16.5 7.76 16.5 10C16.5 11.77 17.33 13.22 18.5 13.76V20C18.5 20.55 18.95 21 19.5 21C20.05 21 20.5 20.55 20.5 20V13.76C21.67 13.22 22.5 11.77 22.5 10C22.5 7.76 21.18 6 19.5 6Z"/></svg>
